X:90
T:Chalmersâ€™ Hornpipe. GS.090
M:2/2
L:1/8
Q:1/2=80
S:George Spencer m/s, Leeds,1831
R:.Hornpipe
O:England
A:Leeds
N:â€ â€œ1â€ This note has a natural written over it, above the stave The
N:slur joins only the â€˜Fâ€™ and the grace notes, but ABC2win doesnâ€™t like
N:that. â€œ2â€ â€“ grace note (semiquaver) is slurred with the following
N:note â€œ3â€ impossible to show as written! Main note has a â€œ~â€ over it â€“
N:the sign for a turn which is also correctly written out in terms of
N:pitch â€“ the â€˜Bâ€™ is shown as a normal sized note, the others as
N:grace-note size. â€œ4â€ -â€ ~â€ and sign for natural shown vertically
N:underneath it, so itâ€™s a turn with an E natural and wonâ€™t play quite
N:right here. The final pause is written above the double bar. Fine is
N:written below it.
H:1831
Z:vmp.Cherri Graebe
K:Bb major
F | BAcA Bdfd | c=BdB cege |.dbfd .cgec | AecA â€œ1â€(F{GF=EF}) GA |!
â€œ2â€{c}BAcA Bdgd | â€œ2â€{d}c=BdB cege | .dbfd .cgec | .AecA B2 :|!
|: â€œ3 ~â€(c/4B/4A/4B/4) | cfef cfef | df=ef bfdB | cfef cfef |\
dfga bfdB |!
gfed e=Bcg | fedc dA_Bf | efde cdBd | ABGA â€ nat 4â€³ ~F2 GA |!
BAcA Bdfd | c=BdB cege | .dbfd .cgec |.AecA â€ nat 4â€³ ~F2 GA |!
â€œ2â€{c}BAcA Bdfd | â€œ2â€{d}c=BdB cege |.dbfd .cgec |\
.AecA Hâ€Fineâ€B2:|

